X:1
T:Title
%%score { ( 1 3 ) | ( 2 4 ) }
L:1/8
M:4/4
K:D
V:1 treble nm="Grand Piano"
V:3 treble 
V:2 bass 
V:4 bass 
V:1
 z2[Q:1/4=100] D>E | F>G F>E D2 F>[EG] | [FA]>[GB] [FA]>[EG] [DF]4 | %3
 [Fd]>[Ec] [Fd]>[GB] [FA]2 D>F | [CE]4 [CA]2 [DF]>[EG] | [FA]>[FA] [FA]>[GB] [FA]2 [DF]>[FA] | %6
 [Fd]>[Ad] [Gd]>[GB] [FA]4 | [Fd]>[Gc] [DAd]>[DGB] [DFA]2 [G,CE]>[A,CF] | [F,D]6 z2 | [FA]4 [DF]4 | %10
 c>c c>B c4 | G4 [Gc]4 | [E^Ge]>[Gd] [Gc]>[GB] A4 | [Fd]4 [FA]4 | F>[DF] [DG]>[DA] [DB]4 | %15
 d>c d>B [DFA]>[A,DF][K:bass] [F,D]>[A,DF] |[M:3/4] [G,CE]4 [F,D]2 |] %17
V:2
 z2 [D,F,]>[D,G,D] | [D,A,D]>[D,B,D] [D,A,D]>[D,G,D] [D,F,]2 [D,A,D]>[D,A,] | %2
 [D,D]>[D,D] [D,D]>[D,A,] [D,A,]4 | [D,A,]>[D,A,] [D,A,]>[D,D] [D,D]2 [F,A,]>[D,A,D] | %4
 [A,,A,]4 [A,,A,]2 [D,A,]>[D,A,] | [D,D]>[D,D] [D,D]>[D,D] [D,D]2 [D,A,]>[D,D] | %6
 [D,A,]>[F,A,] [G,B,]>[G,D] [D,D]4 | [D,A,]>[E,A,] F,>G, A,2 A,,>A,, | D,6 z2 | %9
 D,>D, D,>D, D,>D, D,2 | [A,G]>[A,G] [A,G]>[A,G] [A,G]4 | [A,C]2 z2 z4 | %12
 E,>[E,B,] [E,E]>[E,D] [A,C]4 | [D,A,]>D, D,>D, D,>D, D,2 | %14
 [D,A,D]>[=C,A,] [B,,G,]>[A,,F,] [G,,G,]4 | [G,B,G]>[G,^A,G] [G,B,G]>[G,DG][K:bass] D,>D, D,>D, | %16
[M:3/4] A,,4 D,2 |] %17
V:3
 x4 | x8 | x8 | x8 | x8 | x8 | x8 | x8 | x8 | D>D D>D A,>A, A,2 | x8 | z z/ C/ C>C E>E E2 | x8 | %13
 z z/ A,/ A,>A, D>D D2 | x8 | x6[K:bass] x2 |[M:3/4] x6 |] %17
V:4
 x4 | x8 | x8 | x8 | x8 | x8 | x8 | x8 | x8 | x8 | x8 | E->[A,E-] [A,E-]>[A,E] A,>A, A,2 | x8 | %13
 x8 | x8 | x4[K:bass] x4 |[M:3/4] x6 |] %17

